X:577
T:Austin Barrett's
T:Mulvihills
T:The dusty windowsill
T:The barracks
T:The trip to the highlands
T:Chicago
R:Jig
O:Ireland
C:Sean Harling
S:Xerox of uncertain origin
B:Xerox of uncertain origin?
Z:Transcription, rearrangement, chords:Mike Long
M:6/8
L:1/8
K:G
"Am"A2B cBA|eAB cBA|"G"GFG EGG|"Em"DGG EFG|\
"Am"A2B cBA|"C"e2 d efg|"Em"age "G"dBG|"Am"ABA A3:|
|:"Am"a3 age|"G"dBd g3|"Em"gag gfe|"G"dBA GFG|\
"Em"EGG DGG|"G"EGG ABc|"Em"Bed "G"BAG|"Am"ABA A3:|
|:"Am"ABA g2f|ABA ged|"G"GAG e2d|GAG edB|\
"Am"ABA g2f|"Am"ABA "G"efg|"Em"age "G"dBG|"Am"ABA A3:|
